resources/svg/stackoverflow.svg

<svg width="15" height="15" viewBox="0 0 15 15" fill="none" xmlns="http://www.w3.org/2000/svg">
<path fill-rule="evenodd" clip-rule="evenodd" d="M12.5904 5.78672L9.09038 0.786719L9.90962 0.213257L13.4096 5.21326L12.5904 5.78672ZM11.6655 6.87166L6.66552 2.37163L7.33448 1.62834L12.3345 6.12837L11.6655 6.87166ZM11.1735 8.04573L5.07346 4.94573L5.52651 4.05425L11.6265 7.15425L11.1735 8.04573ZM10.8908 9.48791L4.19075 7.98791L4.40922 7.01207L11.1092 8.51207L10.8908 9.48791ZM2 8.99999H3V14H12V8.99999H13V15H2V8.99999ZM10.9502 11.1975L3.95025 10.4975L4.04975 9.50247L11.0498 10.2025L10.9502 11.1975ZM11 13H4V12H11V13Z" fill="black"/>
</svg>

<svg viewBox="0 0 15 15" fill="none" xmlns="http://www.w3.org/2000/svg" fill="currentColor"><path fill-rule="evenodd" clip-rule="evenodd" d="M12.59 5.787l-3.5-5 .82-.574 3.5 5-.82.574zm-.925 1.085l-5-4.5.67-.744 5 4.5-.67.744zm-.491 1.174l-6.1-3.1.453-.892 6.1 3.1-.454.892zm-.283 1.442l-6.7-1.5.218-.976 6.7 1.5-.218.976zM2 9h1v5h9V9h1v6H2V9zm8.95 2.197l-7-.7.1-.995 7 .7-.1.995zM11 13H4v-1h7v1z" fill="currentColor"/></svg>
